src/assets/button/white.svg

<svg width="390" height="100" viewBox="0 0 390 100" fill="none" xmlns="http://www.w3.org/2000/svg">
<g id="white">
<path id="outline" fill-rule="evenodd" clip-rule="evenodd" d="M345.67 95L383.47 50L345.67 5.00006L44.3299 5.00006L6.52993 50.0001L44.3299 95L345.67 95ZM42 100L348 100L390 50L348 6.47167e-05L42 6.10216e-05L-4.35954e-06 50.0001L42 100Z" fill="url(#paint0_linear_2368_33259)"/>
<path id="line" fill-rule="evenodd" clip-rule="evenodd" d="M23 48L50 16H195H340L367 48H363L339 19L195 19.114L51 19L27 48H23Z" fill="url(#paint1_linear_2368_33259)"/>
<path id="line_2" fill-rule="evenodd" clip-rule="evenodd" d="M23 52L50 84H195H340L367 52H363L339 81L195 80.886L51 81L27 52H23Z" fill="url(#paint2_linear_2368_33259)"/>
<path id="square" d="M28 41L19 50L28 59L37 50L28 41Z" fill="url(#paint3_linear_2368_33259)"/>
<path id="square_2" d="M362 41L353 50L362 59L371 50L362 41Z" fill="url(#paint4_linear_2368_33259)"/>
</g>
<defs>
<linearGradient id="paint0_linear_2368_33259" x1="195" y1="100" x2="195" y2="4.76104e-05" gradientUnits="userSpaceOnUse">
<stop stop-color="#AB750F"/>
<stop offset="0.516" stop-color="#D8A956"/>
<stop offset="1" stop-color="#AB750F"/>
</linearGradient>
<linearGradient id="paint1_linear_2368_33259" x1="23" y1="32.2109" x2="366.889" y2="32.211" gradientUnits="userSpaceOnUse">
<stop stop-color="#AB750F" stop-opacity="0"/>
<stop offset="0.516" stop-color="#D8A956"/>
<stop offset="1" stop-color="#AB750F" stop-opacity="0"/>
</linearGradient>
<linearGradient id="paint2_linear_2368_33259" x1="23" y1="67.7891" x2="366.889" y2="67.789" gradientUnits="userSpaceOnUse">
<stop stop-color="#AB750F" stop-opacity="0"/>
<stop offset="0.516" stop-color="#D8A956"/>
<stop offset="1" stop-color="#AB750F" stop-opacity="0"/>
</linearGradient>
<linearGradient id="paint3_linear_2368_33259" x1="28" y1="41" x2="28" y2="59" gradientUnits="userSpaceOnUse">
<stop stop-color="#AB750F"/>
<stop offset="0.516" stop-color="#D8A956"/>
<stop offset="1" stop-color="#AB750F"/>
</linearGradient>
<linearGradient id="paint4_linear_2368_33259" x1="362" y1="41" x2="362" y2="59" gradientUnits="userSpaceOnUse">
<stop stop-color="#AB750F"/>
<stop offset="0.516" stop-color="#D8A956"/>
<stop offset="1" stop-color="#AB750F"/>
</linearGradient>
</defs>
</svg>

<svg xmlns="http://www.w3.org/2000/svg" width="390" height="100" fill="none" xmlns:v="https://vecta.io/nano"><g fill-rule="evenodd"><path d="M345.67 95l37.8-45-37.8-45H44.33L6.53 50l37.8 45h301.34zM42 100h306l42-50-42-50H42L0 50l42 50z" fill="url(#A)"/><path d="M23 48l27-32h145 145l27 32h-4l-24-29-144 .114L51 19 27 48h-4z" fill="url(#B)"/><path d="M23 52l27 32h145 145l27-32h-4l-24 29-144-.114L51 81 27 52h-4z" fill="url(#C)"/></g><path d="M28 41l-9 9 9 9 9-9-9-9z" fill="url(#D)"/><path d="M362 41l-9 9 9 9 9-9-9-9z" fill="url(#E)"/><defs><linearGradient id="A" x1="195" y1="100" x2="195" y2="0" href="#F"><stop stop-color="#ab750f"/><stop offset=".516" stop-color="#d8a956"/><stop offset="1" stop-color="#ab750f"/></linearGradient><linearGradient id="B" x1="23" y1="32.211" x2="366.889" y2="32.211" href="#F"><stop stop-color="#ab750f" stop-opacity="0"/><stop offset=".516" stop-color="#d8a956"/><stop offset="1" stop-color="#ab750f" stop-opacity="0"/></linearGradient><linearGradient id="C" x1="23" y1="67.789" x2="366.889" y2="67.789" href="#F"><stop stop-color="#ab750f" stop-opacity="0"/><stop offset=".516" stop-color="#d8a956"/><stop offset="1" stop-color="#ab750f" stop-opacity="0"/></linearGradient><linearGradient id="D" x1="28" y1="41" x2="28" y2="59" href="#F"><stop stop-color="#ab750f"/><stop offset=".516" stop-color="#d8a956"/><stop offset="1" stop-color="#ab750f"/></linearGradient><linearGradient id="E" x1="362" y1="41" x2="362" y2="59" href="#F"><stop stop-color="#ab750f"/><stop offset=".516" stop-color="#d8a956"/><stop offset="1" stop-color="#ab750f"/></linearGradient><linearGradient id="F" gradientUnits="userSpaceOnUse"/></defs></svg>
